!!!COM: Scriabin, Alexander
!!!OTL: Etude
!!!OPR: 3 Etudes
!!!OPS: 65
!!!ONM: 2
!!!ODT: 1912
!!!AGN: Etude
**kern	**kern	**dynam
*staff2	*staff1	*staff1/2
*clefF4	*clefG2	*clefG2
*k[]	*k[]	*k[]
*M4/4	*M4/4	*M4/4
*MM80	*MM80	*MM80
=1-	=1-	=1-
12f#\L	4r	p
12G#\	.	.
[12D#\J	.	.
12D#\L]	2b\ (2aa#\	.
12G#\	.	.
[12f#\J	.	.
12f#\L]	.	.
12G#\	.	.
12Dn\J	.	.
12D\L	[4b\ [4aa#\	.
12G#\	.	.
12f#\J	.	.
=2	=2	=2
12e#\L	6b\] 6aa#\]	.
12B\	.	.
12C#\J	12b\ 12aa#\	.
2.FF##\ 2.E#\ 2.B\ 2.e#\	[2.dd\ [2.ccc#\	.
=3	=3	=3
12e#\L	4dd\] 4ccc#\])	.
12B\	.	.
[12C#\J	.	.
2.C#\] 2.F##\ 2.B\	2e/ (2dd#/	.
.	4f/ 4ee/	.
=4	=4	=4
*^	*	*
4r	12d\L	[1a- [1gg	.
.	12A-\	.	.
.	[12BB-\J	.	.
4r	12BB-\L]	.	.
.	12A-\	.	.
.	12d\J	.	.
4c/ 4cc/	4r	.	.
4c-/ 4cc-/	4r	.	.
=5	=5	=5	=5
4c-/ 4cc-/	4r	4a-\] 4gg\])	.
4r	12d\L	4cc-\ (4bb-\	<
.	12A-\	.	.
.	[12BB-\J	.	.
2r	2BB-\] 2E\ 2A-\	4d-/ 4ccn/	.
.	.	4dn/ 4cc#/	.
=6	=6	=6	=6
4r	12B\L	[1f [1ee	.
.	12F\	.	.
.	12GG\J	.	.
2A/ 2a/	4r	.	.
.	2r	.	.
4A-/ 4a-/	.	.	.
*v	*v	*	*
=7	=7	=7
CC#q/	.	.
*^	*	*
2A-/ &(2a-/&)	2CC#\ 2C#\ 2F\ 2B\	2f/] 2ee/])	.
2r	2BB-\ 2E\ 2A-\	4d-/ (4cc/	.
.	.	4dn/ 4cc#/	.
=8	=8	=8	=8
4r	12B\L	[1f [1ee	.
.	12F\	.	.
.	12GG\J	.	.
2A/ 2a/	4r	.	.
.	2r	.	.
4A-/ 4a-/	.	.	.
*v	*v	*	*
=9	=9	=9
CC#q/	.	.
*^	*	*
1A- &(1a-&)	1CC# 1C 1F 1B	2f\] 2ee\])	.
.	.	2f\ (2ee\	.
*v	*v	*	*
=10	=10	=10
1DD 1GG 1F 1B	4r	.
.	[4f\ [4ee\	p
.	6f\] 6ee\]	.
.	12f\ 12ee\	.
.	6a-\ 6gg\	.
.	12f\ 12ee\	.
=11	=11	=11
1DD 1GG 1F 1B-	2f\ 2ee\	.
.	2B-/ 2a/)	pp
=12	=12	=12
*^	*	*
1Bn	12Bn\L	4r	.
.	12F\	.	.
.	12GG\J	.	.
.	12F\L	[4f\ ([4ee\	.
.	12GG\	.	.
.	&(12DD\J&)	.	.
.	12r	6f\] 6ee\]	.
.	12DD\L	.	.
.	12GG\J	12f\ 12ee\	.
.	12F\L	6a-\ 6gg\	.
.	12GG\	.	.
.	12F\J	12f\ 12ee\	.
=13	=13	=13	=13
1B-	12B-\L	2f\ 2ee\	.
.	12F\	.	.
.	12GG\J	.	.
.	&(12F\L&)	.	.
.	12GG\	.	.
.	12DD\J	.	.
.	12r	2B/ 2a/)	.
.	(12DD\L	.	.
.	12GG\J	.	.
.	12F\L	.	.
.	12GG\	.	.
.	12F\J	.	.
=14	=14	=14	=14
1B-	12B-\L	2f\ 2ee\	.
.	12F\	.	.
.	12GG\J	.	.
.	12F\L	.	.
.	12GG\	.	.
.	12DD\J)	.	.
.	12r	2B/ &(2a/&)	.
.	(12DD\L	.	.
.	12GG\J	.	.
.	12F\L	.	.
.	12GG\	.	.
.	12F\J	.	.
*v	*v	*	*
=15	=15	=15
12c-\L	8f\ 8ee\L	.
12D-\	.	.
.	8f-\ 8ee-\J	.
12AA-\J	.	.
12B\L	8fn\ 8een\L	.
12F\	.	.
.	8a-\ &(8gg\J&)	.
12GG\J)	.	.
(12e--\L	8a-\ 8gg\L	.
12F-\	.	.
.	8a--\ 8gg-\J	.
12C-\J	.	.
12d\L	8a-\ 8ggn\L	.
12A-\	.	.
.	8cc-\ &(8bb-\J&)	<
12BB-\J)	.	.
=16	=16	=16
(12f\L	8b\ (8aa#\L	.
12G\	.	.
.	8b-\ 8aan\J	.
12D\J	.	.
12f\L	8cc-\ 8bb-\L	.
12c-\	.	.
.	8ee--\ 8ddd-\J)	.
12D-\J)	.	.
(12a-\L	8dd\ (8ccc#\L	.
12B-\	.	.
.	8dd-\ 8cccn\J	.
12F\J	.	.
12g#\L	8ddn\ 8ccc#\L	.
12d\	.	.
.	8ff\ 8eee\J)	.
12E\J)	.	.
*clefG2	*	*
=17	=17	=17
(12cc-/L	4r	.
12d-/	.	.
12A-/J)	.	.
.	cc-q/	.
4r	4ff\ 4eee\	pp
(12b/L	6r	.
12f/	.	.
12G/J)	12ff\ (12eee\	.
4r	4aa-\ 4ggg\)	.
*clefF4	*	*
=18	=18	=18
(12a-\L	4r	.
12f\	.	.
12B\J	.	.
.	(cc-q/	.
8C#/)	4ff\) 4eee\	.
8r	.	.
(12a-\L	6r	.
12f\	.	.
12B\J	12ff\ (12eee\	.
12F/L	4aa-\ 4ggg\)	.
12GG/J)	.	.
12r	.	.
=19	=19	=19
12c\L	4r	.
12D\	.	.
12AAn\J	.	.
12AA\L	2f\ (2ee\	.
12D\	.	.
[12c\J	.	.
12c\L]	.	.
12D\	.	.
12AA-\J	.	.
12AA-\L	[4f\ [4ee\	<
12D\	.	.
&(12c\J&)	.	.
=20	=20	=20
12B\L	6f\] 6ee\]	.
12F\	.	.
&(12GG\J&)	12f\ 12ee\	.
2.CC#/ 2.BB/ 2.F/ 2.B/	[2.a-\ [2.gg\	.
=21	=21	=21
12B\L	4a-\] 4gg\])	.
12F\	.	.
&([12GG\J&)	.	.
2.GG/] 2.C#/ 2.F/	2B-/ (2an/	.
.	4c-/ 4b-/	.
=22	=22	=22
*^	*	*
2r	12G#\L	[1d [1cc#	.
.	12D\	.	.
.	[12EE\J	.	.
.	12EE\L]	.	.
.	12D\	.	.
.	12G#\J	.	.
4F#/ 4f#/	4r	.	.
4Fn/ 4fn/	4r	.	.
=23	=23	=23	=23
2F/ &(2f/&)	4r	4d/] 4cc#/])	.
.	(12G#\L	4f/ (4ee/	<
.	12D\	.	.
.	[12EE\J)	.	.
2r	2EE/] 2AA#/ 2D/	4G/ 4f#/	.
.	.	4G#/ 4f##/)	.
=24	=24	=24	=24
4r	12F\L	[1c- [1b-	.
.	12C-\	.	.
.	12DD-\J	.	.
2E-/ (2e-/	4r	.	.
.	2r	.	.
4E--/ 4e--/	.	.	.
*v	*v	*	*
=25	=25	=25
2E--/ 2e--/)	2c-/] 2b-/]	.
2EE\ 2D\ 2A#\	4g\ 4ff#\	.
.	4g#\ 4ff##\	.
=26	=26	=26
*^	*	*
.	.	fq/	.
4r	12c-\L	[1cc- [1bb-	.
.	12F\	.	.
.	12DD-\J	.	.
2e-/ (2ee-/	4r	.	.
.	2r	.	.
4e--/ 4ee--/	.	.	.
=27	=27	=27	=27
1e-- 1ee--)	1GG 1F 1c 1f	2cc-\] &(2bb-\]&)	.
.	.	2cc-\ 2bb-\	.
*v	*v	*	*
=28	=28	=28
1AA- 1D- 1c- 1f	4r	.
.	[4cc-\ [4bb-\	pp
.	6cc-\] 6bb-\]	.
.	12cc-\ 12bb-\	.
.	6ee\ 6ddd-\	.
.	12cc-\ 12bb-\	.
=29	=29	=29
1AA- 1D- 1c- 1f-	2cc-\ 2bb-\	.
.	&(2ee-\&)	.
=30	=30	=30
*^	*	*
1f	12fn\L	4r	.
.	12c-\	.	.
.	12D-\J	.	.
.	12c-\L	[4cc-\ ([4bb-\	.
.	12D-\	.	.
.	&(12AA-\J&)	.	.
.	12r	6cc-\] 6bb-\]	.
.	12AA-\L	.	.
.	12D-\J	12cc-\ 12bb-\	.
.	12c-\L	6ee--\ 6ddd-\	.
.	12D-\	.	.
.	12c-\J	12cc-\ 12bb-\	.
=31	=31	=31	=31
1f-	12f-\L	2cc-\ 2bb-\	.
.	12c-\	.	.
.	12D-\J	.	.
.	12c-\L	.	.
.	12D-\	.	.
.	&(12AA-\J&)	.	.
.	12r	2f-\ 2ee-\)	.
.	(12AA-\L	.	.
.	12D-\J	.	.
.	12c-\L	.	.
.	12D-\	.	.
.	12c-\J	.	.
=32	=32	=32	=32
1f-	12f-\L	2cc-\ 2bb-\	.
.	12c-\	.	.
.	12D-\J	.	.
.	12c-\L	.	.
.	12D-\	.	.
.	12AA-\J)	.	.
.	12r	2f-\ &(2ee-\&)	.
.	(12AA-\L	.	.
.	12D-\J	.	.
.	12c-\L	.	.
.	12D-\	.	.
.	12c-\J	.	.
*v	*v	*	*
=33	=33	=33
12f\L	8b\ 8aa#\L	.
12G\	.	.
.	8b-\ 8aan\J	.
12D\J	.	.
12f\L	8cc-\ 8bb-\L	.
12c-\	.	.
.	8ee--\ &(8ddd-\J&)	.
12D-\J)	.	.
(12a-\L	8dd\ 8ccc#\L	.
12B-\	.	.
.	8dd-\ 8cccn\J	.
12F\J	.	.
12g#\L	8ddn\ 8ccc#\L	<
12d\	.	.
.	8ff\ &(8eee\J&)	.
12E\J)	.	.
*clefG2	*	*
=34	=34	=34
(12cc-/L	8f\ (8ee\L	.
12d-/	.	.
.	8f-\ 8ee-\J	.
12A-/J	.	.
12bn/L	8fn\ 8een\L	.
12f/	.	.
.	8a-\ 8gg\J)	.
12G/J)	.	.
(12dd/L	8g#\ (8ff##\L	.
12e/	.	.
.	8gn\ 8ff#\J	.
12B/J	.	.
12dd/L	8a-\ 8gg\L	.
12a-/	.	.
.	8cc-\ 8bb-\J)	pp
12B-/J)	.	.
=35	=35	=35
(12ff/L	4r	.
12g/	.	.
12d/J)	.	.
.	(gq/	.
4r	4cc-\) [4bb-\	.
(12ff/L	6cc-\ 6bb-\]	.
12cc-/	.	.
12d-/J)	12cc-\ (12bb-\	.
4r	4ee--\ 4ddd-\)	.
=36	=36	=36
(12ee\L	4r	.
12cc-\	.	.
12f\J	.	.
.	fq/	.
8G/)	4cc-\ 4bb-\	.
8r	.	.
(12ee\L	6r	.
12cc-\	.	.
12f\J	12cc-\ (12bb-\	.
12c-/L	4ee\ 4ddd-\)	.
12D-/J)	.	.
12r	.	.
=37	=37	=37
(12ee--\L	6r	.
12cc-\	.	.
12f\J	12cc-\ 12bb-\	.
8c-/L	4ee--\ 4ddd-\	.
8D-/J)	.	.
2r	2r	.
=38	=38	=38
(12ee--\L	6r	.
12cc-\	.	.
12f\J	12cc-\ 12bb-\	.
8c-/L	4ee--\ 4ddd-\	.
8D-/J)	.	.
2r	4r	.
.	4c-/ 4b-/	mf
*clefF4	*	*
=39	=39	=39
(DD-q/	.	.
1DDD-; 1DD-;) 1F; 1c-;	1e--; 1dd-;	.
==	==	==
*-	*-	*-
